static/img/kroki/3373f2fe76ed515f37d5831c369f8d6d.svg

<?xml version="1.0" encoding="us-ascii" standalone="no"?><svg xmlns="http://www.w3.org/2000/svg" xmlns:xlink="http://www.w3.org/1999/xlink" contentStyleType="text/css" height="374px" preserveAspectRatio="none" style="width:447px;height:374px;" version="1.1" viewBox="0 0 447 374" width="447px" zoomAndPan="magnify"><defs/><g><!--class azure_storage_sku--><g id="elem_azure_storage_sku"><rect codeLine="23" fill="#3D176E" height="39.7891" id="azure_storage_sku" rx="2.5" ry="2.5" style="stroke:#000D19;stroke-width:0.5;" width="197" x="124.5" y="328.58"/><ellipse cx="139.5" cy="348.4745" fill="#ADD1B2" rx="11" ry="11" style="stroke:#181818;stroke-width:1.0;"/><path d="M142.4688,354.1152 Q141.8906,354.412 141.25,354.5527 Q140.6094,354.7089 139.9063,354.7089 Q137.4063,354.7089 136.0781,353.0683 Q134.7656,351.412 134.7656,348.287 Q134.7656,345.162 136.0781,343.5058 Q137.4063,341.8495 139.9063,341.8495 Q140.6094,341.8495 141.25,342.0058 Q141.9063,342.162 142.4688,342.4589 L142.4688,345.1777 Q141.8438,344.5995 141.25,344.3339 Q140.6563,344.0527 140.0313,344.0527 Q138.6875,344.0527 138,345.1308 Q137.3125,346.1933 137.3125,348.287 Q137.3125,350.3808 138,351.4589 Q138.6875,352.5214 140.0313,352.5214 Q140.6563,352.5214 141.25,352.2558 Q141.8438,351.9745 142.4688,351.3964 L142.4688,354.1152 Z " fill="#000000"/><text fill="#D9B8FF" font-family="Helvetica" font-size="17" lengthAdjust="spacing" textLength="155" x="158.5" y="354.3598">azure_storage_sku</text></g><!--class microsoft_resource--><g id="elem_microsoft_resource"><rect codeLine="26" fill="#3D176E" height="39.7891" id="microsoft_resource" rx="2.5" ry="2.5" style="stroke:#000D19;stroke-width:0.5;" width="200" x="7" y="167.79"/><ellipse cx="22" cy="187.6845" fill="#ADD1B2" rx="11" ry="11" style="stroke:#181818;stroke-width:1.0;"/><path d="M24.9688,193.3252 Q24.3906,193.622 23.75,193.7627 Q23.1094,193.9189 22.4063,193.9189 Q19.9063,193.9189 18.5781,192.2783 Q17.2656,190.622 17.2656,187.497 Q17.2656,184.372 18.5781,182.7158 Q19.9063,181.0595 22.4063,181.0595 Q23.1094,181.0595 23.75,181.2158 Q24.4063,181.372 24.9688,181.6689 L24.9688,184.3877 Q24.3438,183.8095 23.75,183.5439 Q23.1563,183.2627 22.5313,183.2627 Q21.1875,183.2627 20.5,184.3408 Q19.8125,185.4033 19.8125,187.497 Q19.8125,189.5908 20.5,190.6689 Q21.1875,191.7314 22.5313,191.7314 Q23.1563,191.7314 23.75,191.4658 Q24.3438,191.1845 24.9688,190.6064 L24.9688,193.3252 Z " fill="#000000"/><text fill="#D9B8FF" font-family="Helvetica" font-size="17" lengthAdjust="spacing" textLength="158" x="41" y="193.5698">microsoft_resource</text></g><!--class phantom_resource--><g id="elem_phantom_resource"><rect codeLine="29" fill="#3D176E" height="39.7891" id="phantom_resource" rx="2.5" ry="2.5" style="stroke:#000D19;stroke-width:0.5;" width="198" x="242" y="167.79"/><ellipse cx="257" cy="187.6845" fill="#ADD1B2" rx="11" ry="11" style="stroke:#181818;stroke-width:1.0;"/><path d="M259.9688,193.3252 Q259.3906,193.622 258.75,193.7627 Q258.1094,193.9189 257.4063,193.9189 Q254.9063,193.9189 253.5781,192.2783 Q252.2656,190.622 252.2656,187.497 Q252.2656,184.372 253.5781,182.7158 Q254.9063,181.0595 257.4063,181.0595 Q258.1094,181.0595 258.75,181.2158 Q259.4063,181.372 259.9688,181.6689 L259.9688,184.3877 Q259.3438,183.8095 258.75,183.5439 Q258.1563,183.2627 257.5313,183.2627 Q256.1875,183.2627 255.5,184.3408 Q254.8125,185.4033 254.8125,187.497 Q254.8125,189.5908 255.5,190.6689 Q256.1875,191.7314 257.5313,191.7314 Q258.1563,191.7314 258.75,191.4658 Q259.3438,191.1845 259.9688,190.6064 L259.9688,193.3252 Z " fill="#000000"/><text fill="#D9B8FF" font-family="Helvetica" font-size="17" lengthAdjust="spacing" textLength="156" x="276" y="193.5698">phantom_resource</text></g><!--class resource--><g id="elem_resource"><rect codeLine="32" fill="#3D176E" height="39.7891" id="resource" rx="2.5" ry="2.5" style="stroke:#000D19;stroke-width:0.5;" width="113" x="166.5" y="7"/><ellipse cx="181.5" cy="26.8945" fill="#ADD1B2" rx="11" ry="11" style="stroke:#181818;stroke-width:1.0;"/><path d="M184.4688,32.5352 Q183.8906,32.832 183.25,32.9727 Q182.6094,33.1289 181.9063,33.1289 Q179.4063,33.1289 178.0781,31.4883 Q176.7656,29.832 176.7656,26.707 Q176.7656,23.582 178.0781,21.9258 Q179.4063,20.2695 181.9063,20.2695 Q182.6094,20.2695 183.25,20.4258 Q183.9063,20.582 184.4688,20.8789 L184.4688,23.5977 Q183.8438,23.0195 183.25,22.7539 Q182.6563,22.4727 182.0313,22.4727 Q180.6875,22.4727 180,23.5508 Q179.3125,24.6133 179.3125,26.707 Q179.3125,28.8008 180,29.8789 Q180.6875,30.9414 182.0313,30.9414 Q182.6563,30.9414 183.25,30.6758 Q183.8438,30.3945 184.4688,29.8164 L184.4688,32.5352 Z " fill="#000000"/><text fill="#D9B8FF" font-family="Helvetica" font-size="17" lengthAdjust="spacing" textLength="71" x="200.5" y="32.7798">resource</text></g><!--reverse link microsoft_resource to azure_storage_sku--><g id="link_microsoft_resource_azure_storage_sku"><path codeLine="35" d="M131.6093,222.3737 C153.9093,252.8937 186.63,297.69 208.96,328.25 " fill="none" id="microsoft_resource-backto-azure_storage_sku" style="stroke:#FFAF37;stroke-width:2.0;"/><polygon fill="none" points="120.99,207.84,126.7648,225.9135,136.4539,218.834,120.99,207.84" style="stroke:#FFAF37;stroke-width:2.0;"/></g><!--reverse link phantom_resource to azure_storage_sku--><g id="link_phantom_resource_azure_storage_sku"><path codeLine="36" d="M316.0337,222.2876 C293.3537,252.8076 260,297.69 237.28,328.25 " fill="none" id="phantom_resource-backto-azure_storage_sku" style="stroke:#FFAF37;stroke-width:2.0;"/><polygon fill="none" points="326.77,207.84,311.2179,218.7088,320.8496,225.8663,326.77,207.84" style="stroke:#FFAF37;stroke-width:2.0;"/></g><!--reverse link resource to microsoft_resource--><g id="link_resource_microsoft_resource"><path codeLine="37" d="M198.3907,61.5837 C176.0907,92.1037 143.37,136.9 121.04,167.46 " fill="none" id="resource-backto-microsoft_resource" style="stroke:#FFAF37;stroke-width:2.0;"/><polygon fill="none" points="209.01,47.05,193.5461,58.044,203.2352,65.1235,209.01,47.05" style="stroke:#FFAF37;stroke-width:2.0;"/></g><!--reverse link resource to phantom_resource--><g id="link_resource_phantom_resource"><path codeLine="38" d="M247.9663,61.4976 C270.6463,92.0176 304,136.9 326.72,167.46 " fill="none" id="resource-backto-phantom_resource" style="stroke:#FFAF37;stroke-width:2.0;"/><polygon fill="none" points="237.23,47.05,243.1504,65.0763,252.7821,57.9188,237.23,47.05" style="stroke:#FFAF37;stroke-width:2.0;"/></g><!--SRC=[XP1FQm913CNl-oa6UXQqqghGYnLAUv5IUvUuat67tPqicMn5stxtQhLbdF7FAP3tuxsN55QZmhgHjQgnNY3xp9VMDS1Ggp4phIPK4QiROy3q1x7uH4wk0bEeKJrZzO5YSuY9zyBcfKFlrMqWFK9UBfbQf_Vsmk3yLa8d0JMfmFkn2Dj5AnYKqQF5q9YOZ4rl-hetkCS48zR81wJRxUhUA4QkHbsy-v-OsGsgNlYqAGacDPE8N-fYonqHb4mE_TFFTdm5hQrRghjWzxRln0xvQ3yhGDDgHnkeV1ZZ1Hb9rWrEagjmDDHcS19-EGTd-Uvr2ZOjuzmBCIotispLPvPz7yJQvaoUZCmPFRMSOwWs1JYX-gHsl3lXy_3LwNJIz2mnFGT6G1eH4x5pzWC0]--></g></svg>

<svg xmlns="http://www.w3.org/2000/svg" width="447" height="374" viewBox="0 0 447 374"><rect width="197" height="39.789" x="124.5" y="328.58" fill="#3D176E" rx="2.5" ry="2.5" style="stroke:#000d19;stroke-width:.5"/><circle cx="139.5" cy="348.474" r="11" fill="#ADD1B2" style="stroke:#181818;stroke-width:1"/><path d="M142.469 354.115q-.578.297-1.219.438-.64.156-1.344.156-2.5 0-3.828-1.64-1.312-1.657-1.312-4.782t1.312-4.781q1.328-1.656 3.828-1.656.703 0 1.344.156.656.156 1.219.453v2.719q-.625-.579-1.219-.844-.594-.281-1.219-.281-1.344 0-2.031 1.078-.687 1.062-.687 3.156t.687 3.172q.688 1.062 2.031 1.062.625 0 1.219-.265.594-.281 1.219-.86z"/><text x="158.5" y="354.36" fill="#D9B8FF" font-family="Helvetica" font-size="17" textLength="155">azure_storage_sku</text><rect width="200" height="39.789" x="7" y="167.79" fill="#3D176E" rx="2.5" ry="2.5" style="stroke:#000d19;stroke-width:.5"/><circle cx="22" cy="187.685" r="11" fill="#ADD1B2" style="stroke:#181818;stroke-width:1"/><path d="M24.969 193.325q-.578.297-1.219.438-.64.156-1.344.156-2.5 0-3.828-1.64-1.312-1.657-1.312-4.782t1.312-4.781q1.328-1.656 3.828-1.656.703 0 1.344.156.656.156 1.219.453v2.719q-.625-.578-1.219-.844-.594-.281-1.219-.281-1.343 0-2.031 1.078-.687 1.062-.687 3.156t.687 3.172q.688 1.062 2.031 1.062.625 0 1.219-.265.594-.281 1.219-.86z"/><text x="41" y="193.57" fill="#D9B8FF" font-family="Helvetica" font-size="17" textLength="158">microsoft_resource</text><rect width="198" height="39.789" x="242" y="167.79" fill="#3D176E" rx="2.5" ry="2.5" style="stroke:#000d19;stroke-width:.5"/><circle cx="257" cy="187.685" r="11" fill="#ADD1B2" style="stroke:#181818;stroke-width:1"/><path d="M259.969 193.325q-.578.297-1.219.438-.64.156-1.344.156-2.5 0-3.828-1.64-1.312-1.657-1.312-4.782t1.312-4.781q1.328-1.656 3.828-1.656.703 0 1.344.156.656.156 1.219.453v2.719q-.625-.578-1.219-.844-.594-.281-1.219-.281-1.344 0-2.031 1.078-.687 1.062-.687 3.156t.687 3.172q.688 1.062 2.031 1.062.625 0 1.219-.265.594-.281 1.219-.86z"/><text x="276" y="193.57" fill="#D9B8FF" font-family="Helvetica" font-size="17" textLength="156">phantom_resource</text><rect width="113" height="39.789" x="166.5" y="7" fill="#3D176E" rx="2.5" ry="2.5" style="stroke:#000d19;stroke-width:.5"/><circle cx="181.5" cy="26.895" r="11" fill="#ADD1B2" style="stroke:#181818;stroke-width:1"/><path d="M184.469 32.535q-.578.297-1.219.438-.64.156-1.344.156-2.5 0-3.828-1.64-1.312-1.657-1.312-4.782t1.312-4.781q1.328-1.656 3.828-1.656.703 0 1.344.156.656.156 1.219.453v2.719q-.625-.578-1.219-.844-.594-.281-1.219-.281-1.344 0-2.031 1.078-.687 1.062-.687 3.156t.687 3.172q.688 1.062 2.031 1.062.625 0 1.219-.265.594-.281 1.219-.86z"/><text x="200.5" y="32.78" fill="#D9B8FF" font-family="Helvetica" font-size="17" textLength="71">resource</text><path fill="none" d="M131.61 222.374c22.3 30.52 55.02 75.316 77.35 105.876m-87.97-120.41 5.775 18.073 9.689-7.079zm195.044 14.448C293.354 252.808 260 297.69 237.28 328.25m89.49-120.41-15.552 10.869 9.632 7.157zM198.39 61.584c-22.3 30.52-55.02 75.316-77.35 105.876m87.97-120.41-15.464 10.994 9.69 7.08zm38.956 14.448C270.646 92.018 304 136.9 326.72 167.46M237.23 47.05l5.92 18.026 9.632-7.157z" style="stroke:#ffaf37;stroke-width:2"/></svg>
